src/22/actions/window-pin.svg

<svg xmlns="http://www.w3.org/2000/svg" viewBox="0 0 22 22">
  <defs id="defs3051">
    <style type="text/css" id="current-color-scheme">
      .ColorScheme-Text {
        color:#5d656b;
      }
      </style>
  </defs>
 <path 
     style="fill:currentColor;fill-opacity:1;stroke:none" 
     d="M 13.285156 3 C 12.506655 3.7785032 12.063294 5.1686871 12.96875 6.6875 L 8.71875 9.53125 C 8.1903434 9.318042 7.6231574 9.159067 7.0625 9.15625 C 6.33374 9.152557 5.9101563 9.2324219 5.2851562 9.8574219 L 7.5722656 12.671875 L 4.1425781 16.714844 L 3 19 L 5.2851562 17.857422 L 9.3828125 14.427734 L 12.142578 16.714844 C 13.249543 15.607879 12.964749 14.492233 12.46875 13.28125 L 15.3125 9.03125 C 16.831311 9.936706 18.221497 9.4933468 19 8.7148438 L 13.285156 3 z "
	 class="ColorScheme-Text"
     />
</svg>

<svg xmlns="http://www.w3.org/2000/svg" viewBox="0 0 22 22"><path d="M13.285 3c-.778.779-1.222 2.169-.316 3.688L8.719 9.53c-.529-.213-1.096-.372-1.656-.375-.73-.003-1.153.076-1.778.701l2.287 2.815-3.43 4.043L3 19l2.285-1.143 4.098-3.43 2.76 2.288c1.107-1.107.822-2.223.326-3.434l2.844-4.25c1.518.906 2.908.462 3.687-.316L13.285 3z" fill="currentColor" color="#5d656b"/></svg>
